dest/img/img-trust-4.svg

<svg fill="none" height="40" viewBox="0 0 178 40" width="178" xmlns="http://www.w3.org/2000/svg"><g clip-rule="evenodd" fill-rule="evenodd"><path d="m61.5171 27.6464c.7389-1.6557 2.2874-2.783 4.3289-2.783 2.0416 0 3.5549.951 4.1885 2.783zm13.3742 2.1139c0-5.0734-3.6958-9.1248-9.0804-9.1248-5.0683 0-9.1509 4.0865-9.1509 9.1602 0 5.0733 3.8015 9.16 9.2919 9.16 3.8024 0 6.5373-1.8361 8.0761-4.4681l-3.8245-2.2829c-.8113 1.5583-2.3687 2.5234-4.2165 2.5234-2.5342 0-4.1178-1.2686-4.6811-3.2063h13.5854zm98.1637 0c0-2.607-1.901-4.7209-4.505-4.7209-2.675 0-4.716 2.0082-4.716 4.7209 0 2.7128 2.041 4.7564 4.716 4.7564 2.604 0 4.505-2.1491 4.505-4.7564zm-13.937.0354c0-6.2356 4.575-9.1602 8.552-9.1602 2.288 0 4.083.8456 5.244 2.0785v-9.8293h4.822v25.7186h-4.822v-1.9726c-1.161 1.374-3.027 2.325-5.314 2.325-3.731 0-8.482-2.9595-8.482-9.16zm-3.543-11.4889c1.594 0 2.885-1.2926 2.885-2.8873s-1.291-2.8873-2.885-2.8873c-1.592 0-2.883 1.2926-2.883 2.8873s1.291 2.8873 2.883 2.8873zm-2.41 2.6812h4.821v17.6153h-4.821v-12.9295l-1.75-.0002zm-12.845 0h4.787v2.889c.879-1.832 2.463-2.889 4.857-2.889h1.935l-1.748 4.6856h-1.314c-2.569 0-3.695 1.3389-3.695 4.6152v8.3145h-4.822zm-27.125 4.7561c0-7.3282 5.525-13.2119 13.127-13.2119 3.803 0 7.001 1.3707 9.316 3.5549.942.8888 1.738 1.9125 2.369 3.0335l-4.294 2.607c-1.583-2.9243-4.012-4.4393-7.355-4.4393-4.681 0-8.307 3.8405-8.307 8.4558 0 4.721 3.555 8.4553 8.482 8.4553 3.731 0 6.371-2.1137 7.286-5.3903h-8.06v-4.6856h13.339v1.9728c0 6.9055-4.927 12.8594-12.565 12.8594-8.024 0-13.338-6.0947-13.338-13.2116zm-5.813 4.0162c0-2.607-1.9-4.7209-4.504-4.7209-2.675 0-4.7169 2.0082-4.7169 4.7209 0 2.7128 2.0419 4.7564 4.7169 4.7564 2.604 0 4.504-2.1491 4.504-4.7564zm-13.937.0354c0-6.2356 4.5752-9.1602 8.552-9.1602 2.288 0 4.083.8456 5.245 2.0785v-9.8293h4.821v25.7186h-4.821v-1.9726c-1.162 1.374-3.027 2.325-5.315 2.325-3.7305 0-8.482-2.9595-8.482-9.16zm-17.4266-8.8077h4.7869v1.9728c1.1261-1.4446 2.8509-2.3253 4.8569-2.3253 4.1528 0 6.6518 2.6776 6.6518 7.2223v10.7455h-4.8922v-10.1113c0-2.3605-1.091-3.7346-3.2377-3.7346-1.8303 0-3.3437 1.2684-3.3437 4.2277v9.6182h-4.822zm-39.369 13.3525 4.4701-3.5234c1.2668 2.1847 3.273 3.4528 5.5604 3.4528 2.4993 0 3.8368-1.6203 3.8368-3.3823 0-2.1137-2.5697-2.7828-5.3148-3.6288-3.4488-1.0568-7.2854-2.3954-7.2854-7.328 0-4.122 3.5903-7.3986 8.5525-7.3986 4.1884 0 6.5816 1.5855 8.6583 3.7348l-4.0478 3.065c-1.0556-1.5852-2.569-2.431-4.5754-2.431-2.2876 0-3.5191 1.2332-3.5191 2.8538 0 1.9728 2.4634 2.6426 5.2085 3.5583 3.4847 1.1272 7.4264 2.6776 7.4264 7.6102 0 4.0865-3.2382 8.0324-8.9046 8.0324-4.6455 0-7.7427-1.9726-10.0659-4.6152z" fill="#576472"/><path d="m10.3281 38.6034h10.2766v-10.287h-10.2766z" fill="#c8cfd6"/><path d="m.0517578 28.3166h10.2765422v-10.2873h-10.2765422z" fill="#c8cfd6"/><path d="m.0517578 38.6034h10.2765422v-10.287h-10.2765422z" fill="#576472"/><path d="m20.605 28.3166h10.2765v-10.2873h-10.2765z" fill="#89929b"/><path d="m10.3281 18.0297h10.2766v-10.28702h-10.2766z" fill="#89929b"/><path d="m10.3281 28.3163h10.2766v-10.287h-10.2766z" fill="#acb7c1"/><g fill="#576472"><path d="m20.605 18.0297h10.2765v-10.28702h-10.2765z"/><path d="m41.4973 1.52788v5.99709h-1.386v-5.99709h-2.1357v-1.199755h5.6645l-.0022 1.199755z"/><path d="m53.7421 7.52498h-1.3129l-1.5942-5.23612-1.594 5.23612h-1.3025l-2.0093-7.230546 1.4545.019878 1.3361 5.093338 1.5005-5.079519h1.3858l1.5005 5.079519 1.3128-5.079519h1.3858z"/><path d="m58.5391 7.52497h1.3857v-7.196845h-1.3857z"/><path d="m63.1353 7.52497v-7.196845h1.3859v5.976485h2.3964l.0121 1.22036z"/><path d="m69.8062 7.52497h1.3857v-7.196845h-1.3857z"/><path d="m77.4966 1.34027c-1.2296 0-1.9692 1.01163-1.9692 2.58666s.7396 2.58643 1.9692 2.58643c1.2399 0 1.9797-1.0114 1.9797-2.58643s-.75-2.58666-1.9797-2.58666zm-.0102 6.32072c-2.0425 0-3.3653-1.5023-3.3653-3.72412 0-2.232 1.3332-3.743999 3.3859-3.743999 2.0633 0 3.3652 1.501329 3.3652 3.723399 0 2.22133-1.3227 3.74472-3.3858 3.74472z"/></g></g></svg>

<svg width="178" height="40" viewBox="0 0 178 40" fill="none" xmlns="http://www.w3.org/2000/svg">
<path fill-rule="evenodd" clip-rule="evenodd" d="M61.5171 27.6464C62.256 25.9907 63.8045 24.8634 65.846 24.8634C67.8876 24.8634 69.4009 25.8144 70.0345 27.6464H61.5171ZM74.8913 29.7603C74.8913 24.6869 71.1955 20.6355 65.8109 20.6355C60.7426 20.6355 56.66 24.722 56.66 29.7957C56.66 34.869 60.4615 38.9557 65.9519 38.9557C69.7543 38.9557 72.4892 37.1196 74.028 34.4876L70.2035 32.2047C69.3922 33.763 67.8348 34.7281 65.987 34.7281C63.4528 34.7281 61.8692 33.4595 61.3059 31.5218H74.8913V29.7603ZM173.055 29.7603C173.055 27.1533 171.154 25.0394 168.55 25.0394C165.875 25.0394 163.834 27.0476 163.834 29.7603C163.834 32.4731 165.875 34.5167 168.55 34.5167C171.154 34.5167 173.055 32.3676 173.055 29.7603ZM159.118 29.7957C159.118 23.5601 163.693 20.6355 167.67 20.6355C169.958 20.6355 171.753 21.4811 172.914 22.714V12.8847H177.736V38.6033H172.914V36.6307C171.753 38.0047 169.887 38.9557 167.6 38.9557C163.869 38.9557 159.118 35.9962 159.118 29.7957ZM155.575 18.3068C157.169 18.3068 158.46 17.0142 158.46 15.4195C158.46 13.8248 157.169 12.5322 155.575 12.5322C153.983 12.5322 152.692 13.8248 152.692 15.4195C152.692 17.0142 153.983 18.3068 155.575 18.3068ZM153.165 20.988H157.986V38.6033H153.165V25.6738L151.415 25.6736L153.165 20.988ZM140.32 20.988H145.107V23.877C145.986 22.045 147.57 20.988 149.964 20.988H151.899L150.151 25.6736H148.837C146.268 25.6736 145.142 27.0125 145.142 30.2888V38.6033H140.32V20.988ZM113.195 25.7441C113.195 18.4159 118.72 12.5322 126.322 12.5322C130.125 12.5322 133.323 13.9029 135.638 16.0871C136.58 16.9759 137.376 17.9996 138.007 19.1206L133.713 21.7276C132.13 18.8033 129.701 17.2883 126.358 17.2883C121.677 17.2883 118.051 21.1288 118.051 25.7441C118.051 30.4651 121.606 34.1994 126.533 34.1994C130.264 34.1994 132.904 32.0857 133.819 28.8091H125.759V24.1235H139.098V26.0963C139.098 33.0018 134.171 38.9557 126.533 38.9557C118.509 38.9557 113.195 32.861 113.195 25.7441ZM107.382 29.7603C107.382 27.1533 105.482 25.0394 102.878 25.0394C100.203 25.0394 98.1611 27.0476 98.1611 29.7603C98.1611 32.4731 100.203 34.5167 102.878 34.5167C105.482 34.5167 107.382 32.3676 107.382 29.7603ZM93.445 29.7957C93.445 23.5601 98.0202 20.6355 101.997 20.6355C104.285 20.6355 106.08 21.4811 107.242 22.714V12.8847H112.063V38.6033H107.242V36.6307C106.08 38.0047 104.215 38.9557 101.927 38.9557C98.1965 38.9557 93.445 35.9962 93.445 29.7957ZM76.0184 20.988H80.8053V22.9608C81.9314 21.5162 83.6562 20.6355 85.6622 20.6355C89.815 20.6355 92.314 23.3131 92.314 27.8578V38.6033H87.4218V28.492C87.4218 26.1315 86.3308 24.7574 84.1841 24.7574C82.3538 24.7574 80.8404 26.0258 80.8404 28.9851V38.6033H76.0184V20.988ZM36.6494 34.3405L41.1195 30.8171C42.3863 33.0018 44.3925 34.2699 46.6799 34.2699C49.1792 34.2699 50.5167 32.6496 50.5167 30.8876C50.5167 28.7739 47.947 28.1048 45.2019 27.2588C41.7531 26.202 37.9165 24.8634 37.9165 19.9308C37.9165 15.8088 41.5068 12.5322 46.469 12.5322C50.6574 12.5322 53.0506 14.1177 55.1273 16.267L51.0795 19.332C50.0239 17.7468 48.5105 16.901 46.5041 16.901C44.2165 16.901 42.985 18.1342 42.985 19.7548C42.985 21.7276 45.4484 22.3974 48.1935 23.3131C51.6782 24.4403 55.6199 25.9907 55.6199 30.9233C55.6199 35.0098 52.3817 38.9557 46.7153 38.9557C42.0698 38.9557 38.9726 36.9831 36.6494 34.3405Z" fill="#576472"/>
<path fill-rule="evenodd" clip-rule="evenodd" d="M10.3281 38.6034H20.6047V28.3164H10.3281V38.6034Z" fill="#C8CFD6"/>
<path fill-rule="evenodd" clip-rule="evenodd" d="M0.0517578 28.3166H10.3283V18.0293H0.0517578V28.3166Z" fill="#C8CFD6"/>
<path fill-rule="evenodd" clip-rule="evenodd" d="M0.0517578 38.6034H10.3283V28.3164H0.0517578V38.6034Z" fill="#576472"/>
<path fill-rule="evenodd" clip-rule="evenodd" d="M20.605 28.3166H30.8815V18.0293H20.605V28.3166Z" fill="#89929B"/>
<path fill-rule="evenodd" clip-rule="evenodd" d="M10.3281 18.0297H20.6047V7.74268H10.3281V18.0297Z" fill="#89929B"/>
<path fill-rule="evenodd" clip-rule="evenodd" d="M10.3281 28.3163H20.6047V18.0293H10.3281V28.3163Z" fill="#ACB7C1"/>
<path fill-rule="evenodd" clip-rule="evenodd" d="M20.605 18.0297H30.8815V7.74268H20.605V18.0297Z" fill="#576472"/>
<path fill-rule="evenodd" clip-rule="evenodd" d="M41.4973 1.52788V7.52497H40.1113V1.52788H37.9756V0.328125H43.6401L43.6379 1.52788H41.4973Z" fill="#576472"/>
<path fill-rule="evenodd" clip-rule="evenodd" d="M53.7421 7.52498H52.4292L50.835 2.28886L49.241 7.52498H47.9385L45.9292 0.294434L47.3837 0.314312L48.7198 5.40765L50.2203 0.328131H51.6061L53.1066 5.40765L54.4194 0.328131H55.8052L53.7421 7.52498Z" fill="#576472"/>
<path fill-rule="evenodd" clip-rule="evenodd" d="M58.5391 7.52497H59.9248V0.328125H58.5391V7.52497Z" fill="#576472"/>
<path fill-rule="evenodd" clip-rule="evenodd" d="M63.1353 7.52497V0.328125H64.5212V6.30461H66.9176L66.9297 7.52497H63.1353Z" fill="#576472"/>
<path fill-rule="evenodd" clip-rule="evenodd" d="M69.8062 7.52497H71.1919V0.328125H69.8062V7.52497Z" fill="#576472"/>
<path fill-rule="evenodd" clip-rule="evenodd" d="M77.4966 1.34027C76.267 1.34027 75.5274 2.3519 75.5274 3.92693C75.5274 5.50196 76.267 6.51336 77.4966 6.51336C78.7365 6.51336 79.4763 5.50196 79.4763 3.92693C79.4763 2.3519 78.7263 1.34027 77.4966 1.34027ZM77.4864 7.66099C75.4439 7.66099 74.1211 6.15869 74.1211 3.93687C74.1211 1.70487 75.4543 0.192871 77.507 0.192871C79.5703 0.192871 80.8722 1.6942 80.8722 3.91627C80.8722 6.1376 79.5495 7.66099 77.4864 7.66099Z" fill="#576472"/>
</svg>
